images/aria20.svg

<svg height="250" viewBox="0 0 250 250" width="250" xmlns="http://www.w3.org/2000/svg"><path d="m1772.434058 887.465027c0 488.771363-396.197668 884.969031-884.969031 884.969031-488.74363 0-884.969032-396.197668-884.969032-884.969031 0-488.74363 396.225402-884.969032 884.969032-884.969032 488.771363 0 884.969031 396.225402 884.969031 884.969032zm0 0" fill="#fcf9f9" stroke="#bc923e" stroke-miterlimit="10" stroke-width="5" transform="scale(.140851)"/><path d="m80.539062 172.480469c0 6.65625-5.394531 12.050781-12.050781 12.050781s-12.054687-5.394531-12.054687-12.050781c0-6.660157 5.398437-12.054688 12.054687-12.054688s12.050781 5.394531 12.050781 12.054688zm0 0"/><path d="m176.699219 171.847656c-1.960938-.339844-3.535157-1.105468-4.726563-2.300781s-2.082031-2.9375-2.675781-5.234375c-.601563-2.300781-.898437-5.492188-.894531-9.578125 0-9.199219.125-18.441406.382812-27.722656.253906-9.285157.382813-19.378907.382813-30.285157 0-7.492187-1.152344-13.878906-3.449219-19.15625-2.300781-5.277343-5.535156-9.574218-9.710938-12.898437-4.171874-3.324219-9.113281-5.753906-14.816406-7.285156-5.707031-1.53125-11.96875-2.296875-18.785156-2.304688-8.175781 0-16.394531 1.535157-24.660156 4.597657-8.261719 3.066406-15.96875 7.496093-23.121094 13.289062l3.320312 15.328125h1.789063c1.191406-1.871094 2.9375-3.617187 5.238281-5.238281 2.429688-1.691406 4.996094-3.1875 7.667969-4.46875 2.816406-1.367188 5.769531-2.441406 8.808594-3.199219 2.921875-.75 5.925781-1.132813 8.941406-1.148437 7.664063 0 13.667969 2.171874 18.011719 6.515624s6.515625 9.582032 6.515625 15.710938c0 2.214844-.296875 4.089844-.894531 5.621094-.597657 1.535156-1.914063 2.941406-3.953126 4.222656-2.046874 1.277344-5.152343 2.554688-9.324218 3.832031-4.175782 1.277344-9.839844 2.765625-16.992188 4.46875-5.792968 1.363281-10.988281 3.023438-15.585937 4.984375-4.597657 1.957032-8.558594 4.382813-11.882813 7.28125-3.304687 2.875-5.925781 6.453125-7.664062 10.476563-1.789063 4.085937-2.683594 8.941406-2.683594 14.5625 0 .597656.015625 1.191406.046875 1.789062 5.441406-.746093 10.9375.898438 15.078125 4.507813 4.136719 3.609375 6.515625 8.832031 6.515625 14.324218.003906 3.242188-.824219 6.429688-2.40625 9.261719.230469.089844.460937.179688.695313.265625 4.601562 1.703125 10.136718 2.554688 16.605468 2.554688 7.835938 0 14.347656-1.617188 19.546875-4.851563 5.199219-3.238281 9.753907-7.582031 13.671875-13.03125 2.042969 5.792969 5.023438 10.21875 8.941406 13.285157 3.917969 3.0625 9.027344 4.597656 15.328126 4.597656 3.917968 0 7.578124-.507813 10.988281-1.53125 3.410156-1.023438 7.582031-2.554688 12.519531-4.601563v-6.128906c-2.554688 0-4.8125-.171875-6.769531-.511719zm-41.390625-46.117187c-.089844 3.832031-.132813 9.410156-.128906 16.734375 0 8.347656-1.746094 14.648437-5.238282 18.90625-3.492187 4.257812-8.046875 6.386718-13.664062 6.386718-4.429688 0-7.964844-1.660156-10.601563-4.980468-2.636719-3.320313-3.957031-8.132813-3.960937-14.4375 0-6.46875 1.066406-11.410156 3.195312-14.816406 2.125-3.410157 4.851563-6.09375 8.175782-8.050782 3.46875-2.023437 7.152343-3.652344 10.984374-4.855468 3.953126-1.253907 7.765626-2.925782 11.371094-4.980469-.003906 2.898437-.050781 6.261719-.132812 10.09375zm0 0"/></svg>

<svg xmlns="http://www.w3.org/2000/svg" xmlns:xlink="http://www.w3.org/1999/xlink" width="250px" height="250px" viewBox="0 0 250 250" version="1.1">
<g id="surface1">
<path style="fill-rule:nonzero;fill:rgb(98.823529%,97.647059%,97.647059%);fill-opacity:1;stroke-width:5;stroke-linecap:butt;stroke-linejoin:miter;stroke:rgb(73.725492%,57.254905%,24.313726%);stroke-opacity:1;stroke-miterlimit:10;" d="M 1772.434058 887.465027 C 1772.434058 1376.23639 1376.23639 1772.434058 887.465027 1772.434058 C 398.721397 1772.434058 2.495995 1376.23639 2.495995 887.465027 C 2.495995 398.721397 398.721397 2.495995 887.465027 2.495995 C 1376.23639 2.495995 1772.434058 398.721397 1772.434058 887.465027 Z M 1772.434058 887.465027 " transform="matrix(0.140851,0,0,0.140851,0.000000000000016012,0.000000000000016012)"/>
<path style=" stroke:none;fill-rule:nonzero;fill:rgb(0%,0%,0%);fill-opacity:1;" d="M 80.539062 172.480469 C 80.539062 179.136719 75.144531 184.53125 68.488281 184.53125 C 61.832031 184.53125 56.433594 179.136719 56.433594 172.480469 C 56.433594 165.820312 61.832031 160.425781 68.488281 160.425781 C 75.144531 160.425781 80.539062 165.820312 80.539062 172.480469 Z M 80.539062 172.480469 "/>
<path style=" stroke:none;fill-rule:nonzero;fill:rgb(0%,0%,0%);fill-opacity:1;" d="M 176.699219 171.847656 C 174.738281 171.507812 173.164062 170.742188 171.972656 169.546875 C 170.78125 168.351562 169.890625 166.609375 169.296875 164.3125 C 168.695312 162.011719 168.398438 158.820312 168.402344 154.734375 C 168.402344 145.535156 168.527344 136.292969 168.785156 127.011719 C 169.039062 117.726562 169.167969 107.632812 169.167969 96.726562 C 169.167969 89.234375 168.015625 82.847656 165.71875 77.570312 C 163.417969 72.292969 160.183594 67.996094 156.007812 64.671875 C 151.835938 61.347656 146.894531 58.917969 141.191406 57.386719 C 135.484375 55.855469 129.222656 55.089844 122.40625 55.082031 C 114.230469 55.082031 106.011719 56.617188 97.746094 59.679688 C 89.484375 62.746094 81.777344 67.175781 74.625 72.96875 L 77.945312 88.296875 L 79.734375 88.296875 C 80.925781 86.425781 82.671875 84.679688 84.972656 83.058594 C 87.402344 81.367188 89.96875 79.871094 92.640625 78.589844 C 95.457031 77.222656 98.410156 76.148438 101.449219 75.390625 C 104.371094 74.640625 107.375 74.257812 110.390625 74.242188 C 118.054688 74.242188 124.058594 76.414062 128.402344 80.757812 C 132.746094 85.101562 134.917969 90.339844 134.917969 96.46875 C 134.917969 98.683594 134.621094 100.558594 134.023438 102.089844 C 133.425781 103.625 132.109375 105.03125 130.070312 106.3125 C 128.023438 107.589844 124.917969 108.867188 120.746094 110.144531 C 116.570312 111.421875 110.90625 112.910156 103.753906 114.613281 C 97.960938 115.976562 92.765625 117.636719 88.167969 119.597656 C 83.570312 121.554688 79.609375 123.980469 76.285156 126.878906 C 72.980469 129.753906 70.359375 133.332031 68.621094 137.355469 C 66.832031 141.441406 65.9375 146.296875 65.9375 151.917969 C 65.9375 152.515625 65.953125 153.109375 65.984375 153.707031 C 71.425781 152.960938 76.921875 154.605469 81.0625 158.214844 C 85.199219 161.824219 87.578125 167.046875 87.578125 172.539062 C 87.582031 175.78125 86.753906 178.96875 85.171875 181.800781 C 85.402344 181.890625 85.632812 181.980469 85.867188 182.066406 C 90.46875 183.769531 96.003906 184.621094 102.472656 184.621094 C 110.308594 184.621094 116.820312 183.003906 122.019531 179.769531 C 127.21875 176.53125 131.773438 172.1875 135.691406 166.738281 C 137.734375 172.53125 140.714844 176.957031 144.632812 180.023438 C 148.550781 183.085938 153.660156 184.621094 159.960938 184.621094 C 163.878906 184.621094 167.539062 184.113281 170.949219 183.089844 C 174.359375 182.066406 178.53125 180.535156 183.46875 178.488281 L 183.46875 172.359375 C 180.914062 172.359375 178.65625 172.1875 176.699219 171.847656 Z M 135.308594 125.730469 C 135.21875 129.5625 135.175781 135.140625 135.179688 142.464844 C 135.179688 150.8125 133.433594 157.113281 129.941406 161.371094 C 126.449219 165.628906 121.894531 167.757812 116.277344 167.757812 C 111.847656 167.757812 108.3125 166.097656 105.675781 162.777344 C 103.039062 159.457031 101.71875 154.644531 101.714844 148.339844 C 101.714844 141.871094 102.78125 136.929688 104.910156 133.523438 C 107.035156 130.113281 109.761719 127.429688 113.085938 125.472656 C 116.554688 123.449219 120.238281 121.820312 124.070312 120.617188 C 128.023438 119.363281 131.835938 117.691406 135.441406 115.636719 C 135.4375 118.535156 135.390625 121.898438 135.308594 125.730469 Z M 135.308594 125.730469 "/>
</g>
</svg>
